X:21199 
T:WEDDING OF BALLYPOREEN, The 
B:DMI.0996
Z:Nordberg/Black
N:In Set Dance section of DMI without
repeats.
R:jig 
%Q:1/4=160
M:6/8
N:Dotted rhythm removed
L:1/8
K:G
A|GAG gfg|agf g2a|bag efg|dec B2A|
GAG gfg|agf g2a|bag efg|dec B2 :|
d|ecA ABA|e3 c2c|dBG GAG|d3 B2d|
ecA ABA|a3 f3|gdB cAF|G3 G2 :|

%%%

